modules/hawcons-filled/icons/medal.svg

<?xml version="1.0" encoding="UTF-8" standalone="no"?>
<svg width="32px" height="32px" viewBox="0 0 32 32" version="1.1" xmlns="http://www.w3.org/2000/svg" xmlns:xlink="http://www.w3.org/1999/xlink" xmlns:sketch="http://www.bohemiancoding.com/sketch/ns">
    <!-- Generator: Sketch 3.0.3 (7891) - http://www.bohemiancoding.com/sketch -->
    <title>icon 36 medal</title>
    <desc>Created with Sketch.</desc>
    <defs></defs>
    <g id="Page-1" stroke="none" stroke-width="1" fill="none" fill-rule="evenodd" sketch:type="MSPage">
        <g id="icon-36-medal" sketch:type="MSArtboardGroup" fill="#929292">
            <path d="M16.0617547,11.6370769 L20.3594127,1 L25.9225158,3.24763956 L21.5556412,14.0560335 C20.0541056,12.7394375 18.1549584,11.865267 16.0617547,11.6370769 L16.0617547,11.6370769 L16.0617547,11.6370769 Z M8.36920411,14.0617992 L4,3.24763956 L9.56310313,1 L13.861138,11.6380097 C11.7682487,11.8679764 9.86973167,12.7437786 8.36920411,14.0617992 L8.36920411,14.0617992 L8.36920411,14.0617992 Z M14.9657076,30.5776987 C19.9362704,30.5776987 23.9657076,26.5482614 23.9657076,21.5776987 C23.9657076,16.6071359 19.9362704,12.5776987 14.9657076,12.5776987 C9.99514486,12.5776987 5.96570761,16.6071359 5.96570761,21.5776987 C5.96570761,26.5482614 9.99514486,30.5776987 14.9657076,30.5776987 L14.9657076,30.5776987 L14.9657076,30.5776987 Z M14.9657076,24.2700064 L11.4657076,26.5776987 L12.9657076,22.5776987 L9.96570761,20.5776987 L13.4657076,20.5776987 L14.9657076,16.5776987 L16.4657076,20.5776987 L19.9657076,20.5776987 L16.9657076,22.5776987 L18.4657076,26.5776987 L14.9657076,24.2700064 L14.9657076,24.2700064 Z" id="medal" sketch:type="MSShapeGroup"></path>
        </g>
    </g>
</svg>

<svg width="32" height="32" viewBox="0 0 32 32" xmlns="http://www.w3.org/2000/svg"><path d="M16.062 11.637L20.359 1l5.564 2.248-4.367 10.808a9.96 9.96 0 0 0-5.494-2.419zm-7.693 2.425L4 3.248 9.563 1l4.298 10.638a9.96 9.96 0 0 0-5.492 2.424zm6.597 16.516a9 9 0 1 0 0-18 9 9 0 0 0 0 18zm0-6.308l-3.5 2.308 1.5-4-3-2h3.5l1.5-4 1.5 4h3.5l-3 2 1.5 4-3.5-2.308z" fill="#929292" fill-rule="evenodd"/></svg>
